src/pos-icons/power-plug-off.svg

<svg height="24" viewBox="0 0 24 24" width="24" xmlns="http://www.w3.org/2000/svg"><path d="m8 3v3.18c3.1 3.05 6.1 6.12 9.2 9.12.2-.3.6-.5.8-.9v-5.6c0-1.12-1.3-1.64-2-1.96v-3.84h-2v4h-4v-4zm-4.72 1c-.43.42-.85.85-1.28 1.27l4 4v5.23c1.17 1.15 2.33 2.33 3.5 3.5v3h5v-3c.22-.27.45.33.67.44 1.2 1.2 2.3 2.4 3.5 3.6.5-.4.9-.9 1.3-1.3-5.6-5.6-11.2-11.1-16.7-16.7z"/></svg>

<?xml version="1.0" encoding="UTF-8"?><!DOCTYPE svg PUBLIC "-//W3C//DTD SVG 1.1//EN" "http://www.w3.org/Graphics/SVG/1.1/DTD/svg11.dtd"><svg xmlns="http://www.w3.org/2000/svg" xmlns:xlink="http://www.w3.org/1999/xlink" version="1.1" id="mdi-power-plug-off" width="24" height="24" viewBox="0 0 24 24"><path d="M8,3V6.18C11.1,9.23 14.1,12.3 17.2,15.3C17.4,15 17.8,14.8 18,14.4V8.8C18,7.68 16.7,7.16 16,6.84V3H14V7H10V3H8M3.28,4C2.85,4.42 2.43,4.85 2,5.27L6,9.27V14.5C7.17,15.65 8.33,16.83 9.5,18V21H14.5V18C14.72,17.73 14.95,18.33 15.17,18.44C16.37,19.64 17.47,20.84 18.67,22.04C19.17,21.64 19.57,21.14 19.97,20.74C14.37,15.14 8.77,9.64 3.27,4.04L3.28,4Z" /></svg>
